/* XPM */
static char *e3f012dfb6574e2dd5f2955cc3470351IsrAyTRvINwyIhdJ[] = {
/* columns rows colors chars-per-pixel */
"64 64 13 1 ",
"  c #202020",
". c #2F5753",
"X c #3B7D4F",
"o c #4A5252",
"O c #9C4A39",
"+ c #DE5A39",
"@ c #63AB3F",
"# c #FF9439",
"$ c #FFD539",
"% c #7B7B83",
"& c #A4A4C5",
"* c #DECDF6",
"= c white",
/* pixels */
"X.@@X@XX@@X@X.X@X.@@X@XX@@X@X.X@X.@XX@XX@@X@X.@@X@XX@@X@X.X@X.@@",
".XX@X@X@@XX@@X.X.XX@X@X@@XX@@X.X.XX@X@X@@XX@.XX@X@X@@XX@@X.X.XX@",
"X@X@X@XX@X@@X.XXX@X@X@XX@X@@X.XXX@X@X@XX@X@@X@X@X@XX@X@@X.XXX@X@",
"X@@XX@X.X@X@XXX@X@@XX@X.X@X@XXX@X@@XX@X.X@X@X@@XX@X.X@X@XXX@X@@X",
".@XX@X.XX@X@X.X@.@XX@X.XX@X@X.X@.@XX@X.XX@X@.@XX@X.XX@X@X.X@.@XX",
"X@X@@XX@X@XX.X@@X@X@@XX@X@XX.X@@X@X@@XX@X@XXX@X@@XX@X@XX.X@@X@X@",
"X@XX@X@@X@@XX@X@X@XX@X@@X@@XX@X@X@XX@X@@X@@XX@XX@X@@X@@XX@X@X@XX",
".@@X@XX@X@XXX@X@X@@X@XX@X@XXX@X@X@@X@XX@X@XX.@@X@XX@X@XXX@X@X@@X",
".X.X@XX@X.XX@@XX.X.X@XX@X.XX@@XX.X.X@XX@X.XX.X.X@XX@X.XX@@XX.X.X",
"XX@X.XX@@X@XX@@XXX@X.XX@@X@XX@@XXX@X.XX@@X@XXX@X.XX@@X@XX@@XXX@X",
"@XX@X.X@X@@XX@XX@XX@X.X@X@@XX@XX@XX@X.X@X@@X@XX@X.X@X@@XX@XX@XX@",
"@XX@X@XX.X@XX@X@@XX@X@XX.X@XX@X@@XX@X@XX.X@X@XX@X@XX.X@XX@X@@XX@",
"@@X@X.@X.X@@XX.X@@X@X.XX.X@@XX.X@@X@X.XX.X@@@@X@X.@X.X@@XX.X@@X@",
"@XX@X.@X.X@X.X@X@XX@X.X@.X@X.X@X@XX@X.X@.X@X@XX@X.@X.X@X.X@X@XX@",
"@X.X.@X.@.@X.X.X@X.X.@X.@.            X.@.@X@X.X.@X.@.@X.X.X@X.X",
"X.X@XX@X@XX@X.X@X.X@XX@X@X            @X@XX@X.X@XX@X@XX@X.X@X.X@",
"X.@@X@XX@@X@X.X@X.@@X@    ############    X@X.@@X@XX@@X@X.X@X.@@",
".XX@X@X@@XX@@X.X.XX@X@    ############    X@.XX@X@X@@XX@@X.X.XX@",
"X@X@X@XX@X@@X.XXX@X@  ##################++  X@X@X@XX@X@@X.XXX@X@",
"X@@XX@X.X@X@XXX@X@@X  ##################++  X@@XX@X.X@X@XXX@X@@X",
".@XX@X.XX@X@X.X@.@  ##$$$$################++  XX@X.XX@X@X.X@.@XX",
".@X@@XX@X@XX.X@@X@  ##$$$$################++  X@@XX@X@XX.X@@X@X@",
"X@XX@X@@X@@XX@X@  ##$$====$$##############++++  @X@@X@@XX@X@X@XX",
"X@@X@XX@X@XXX@X@  ##$$====$$##############++++  @XX@X@XXX@X@X@@X",
".X.X@XX@X.XX@@XX  ##$$====$$##############++++  @XX@X.XX@@XX.X.X",
"XX@X.XX@@X@XX@@X  ##$$====$$##############++++  .XX@@X@XX@@XXX@X",
"@XX@X.X@X@@XX@  ######$$$$################++++++  X@X@@XX@XX@XX@",
"@XX@X@XX.X@XX@  ######$$$$################++++++  XX.X@XX@X@@XX@",
"@@X@X.@X.X@@XX  ########################++++++++  @X.X@@XX.X@@X@",
"@XXXX.@X.X@X.X  ########################++++++++  @X.X@X.X@X@XX@",
"@X.@.@X.@.@X.X  ########################++++++++  X.@.@X.X.X@X.@",
"X.X@XX@X@XX@X.  ########################++++++++  @X@XX@X.X@X.X@",
"X.@@X@XX@@X@X.  OO####################++++++++OO  XX@@X@X.X@X.@@",
".XX@X@X@@XX@@X  OO####################++++++++OO  X@@XX@@X.X.XX@",
"X@X@X@XX@X@@X.  ooOO####oooooo####++++++++++OOoo  XX@X@@X.XXX@X@",
"X@@XX@X.X@X@XX  ooOO####oooooo####++++++++++OOoo  X.X@X@XXX@X@@X",
".@XX@X.XX@X@X.  oooooooo&&==&&oo++++++OOoooooooo  .XX@X@X.X@X@.X",
"X@X@@XX@X@XX.X  oooooooo&&==&&oo++++++OOoooooooo  X@X@XX.X@@X@X@",
"X@XX@X@@X@@XX@X@  %%oooo======oooooooooooooo%%  @X@@X@@XX@X@X@..",
"X@@X@XX@X@XXX@X@  %%oooo======oooooooooooooo%%  @XX@X@XXX@X@X@@X",
".X.X@XX@X.XX@@XX  **==%%&&==&&oooooooooo%%**&&  @XX@X.XX@@XX.X.X",
"XX@X.XX@@X@XX@@X  **==%%&&==&&oooooooooo%%**&&  .XX@@X@XX@@XXX@X",
"@XX@X.X@X@@XX@XX@X  **==%%%%%%************&&  X@X.X@X@@XX@XX@XX@",
"@XX@X.XX..@XX@X@@X  **==%%%%%%************&&  X@X.XX..@XX@X@@XX@",
"X.@@X@XX@@X@X.X@X.@@  &&**************&&&&  X.@@X@XX@@X@X.X@X.@@",
".XX@X@X@@XX@@X.X.XX@  &&**************&&&&  .XX@X@X@@XX@@X.X.XX@",
"X@X@X@XX@X@@X.XXX@X@X@    &&&&&&&&&&&&    @@X@X@X@XX@X@@X.XXX@X@",
"X@@XX@X.X@X@XXX@X@@XX@    &&&&&&&&&&&&    X@X@@XX@X.X@X@XXX@X@@X",
".@XX@X.XX@X@X.X@.@XX@X.XX@            .XX@X@.@XX@X.XX@X@X.X@.@XX",
"X@X@@XX@X@XX.X@@X@X@@XX@X@            X@X@XXX@X@@XX@X@XX.X@@X@X@",
"X@XX@X@@X@@XX@X@X@XX@X@@X@@XX@X@X@XX@X@@X@@XX@XX@X@@X@@XX@X@X@XX",
".@@X@XX@X@XXX@X@X@@X@XX@X@XXX@X@X@@X@XX@X@XX.@@X@XX@X@XXX@X@X@@X",
".X.X@XX@X.XX@@XX.X.X@XX@X.XX@@XX.X.X@XX@X.XX.X.X@XX@X.XX@@XX.X.X",
"XX@X.XX@@X@XX@@XXX@X.XX@@X@XX@@XXX@X.XX@@X@XXX@X.XX@@X@XX@@XXX@X",
"@XX@X.X@X@@XX@XX@XX@X.X@X@@XX@XX@XX@X.X@X@@X@XX@X.X@X@@XX@XX@XX@",
"@XX@X@XX.X@XX@X@@XX@X@XX.X@XX@X@@XX@X@XX.X@X@XX@X@XX.X@XX@X@@XX@",
"@@X@X.@X.X@@XX.X@@X@X.XX.X@@XX.X@@X@X.XX.X@@@@X@X.@X.X@@XX.X@@X@",
"@XX@X.@X.X@X.X@X@XX@X.X@.X@X.X@X@XX@X.X@.X@X@XX@X.@X.X@X.X@X@XX@",
"@X.X.@X.@.@X.X.X@X.X.@X.@.@X.X.X@X.X.@X.@.@X@X.X.@X.@.@X.X.X@X.X",
"X.X@XX@X@XX@X.X@X.X@XX@X@XX@X.X@X.X@XX@X@XX@X.X@XX@X@XX@X.X@X.X@",
"X.@@X@XX@@X@X.X@X.@@X@XX@@X@X.X@X.@@X@XX@@X@X.@@X@XX@@X@X.X@X.@@",
".XX@X@X@@XX@@X.X.XX@X@X@@XX@@X.X.XX@X@X@@XX@.XX@X@X@@XX@@X.X.XX@",
"X@X@X@XX@X@@X.XXX@X@X@XX@X@@X.XXX@X@X@XX@X@@X@X@X@XX@X@@X.XXX@X@",
"X@@XX@X.X@X@XXX@X@@XX@X.X@X@XXX@X@@XX@X.X@X@X@@XX@X.X@X@XXX@X@@X"
};
