/* XPM */
static char *_edc6b48fd864dd1f4231a758225fed2wVZ4Y1B1JaNPzcXJ[] = {
/* columns rows colors chars-per-pixel */
"64 64 14 1 ",
"  c black",
". c #4A4A39",
"X c #6A4129",
"o c #2F5753",
"O c #3B7D4F",
"+ c #7B735A",
"@ c #94734A",
"# c #A47B5A",
"$ c #63AB3F",
"% c #948B73",
"& c #CDAC7B",
"* c #ACAC8B",
"= c #BDBD9C",
"- c #FFEEA4",
/* pixels */
"Oo$$O$OO$$O$OoO$Oo$$O$OO$$O$OoO$Oo$OO$OO$$O$Oo$$O$OO$$O$OoO$Oo$$",
"oOO$O$O$$OO$$OoOoOO$O$O$$OO$$OoOoOO$O$O$$OO$oOO$O$O$$OO$$OoOoOO$",
"O$O$O$OO$O$$OoOOO$O$O$OO$O$$OoOOO$O$O$OO$O$$O$O$O$OO$O$$OoOOO$O$",
"O$$OO$OoO$O$OOO$O$$OO$OoO$O$OOO$O$$OO$OoO$O$O$$OO$OoO$O$OOO$O$$O",
"o$OO$OoOO$O$OoO$o$OO$OoOO$O$OoO$o$OO$OoOO$O$o$OO$OoOO$O$OoO$o$OO",
"O$O$$OO$O$OOoO$$O$O$$OO$O$OOoO$$O$O$$OO$O$OOO$O$$OO$O$OOoO$$O$O$",
"O$OO$O$$O$$OO$O$O$OO$O$$O$$OO$O$O$OO$O$$O$$OO$OO$O$$O$$OO$O$O$OO",
"o$$O$OO$O$OOO$O$O$$O$OO$O$OOO$O$O$$O$OO$O$OOo$$O$OO$O$OOO$O$O$$O",
"oOoO$OO$OoOO$$OOoOoO$OO$OoOO$$OOoOoO$OO$OoOOoOoO$OO$OoOO$$OOoOoO",
"OO$OoOO$$O$OO$$OOO$OoOO$$O$OO$$OOO$OoOO$$O$OOO$OoOO$$O$OO$$OOO$O",
"$OO$OoO$O$$OO$OO$OO$OoO$O$$OO$OO$OO$OoO$O$$O$OO$OoO$O$$OO$OO$OO$",
"$OO$O$OOoO$OO$O$$OO$O$OOoO$OO$O$$OO$O$OOoO$O$OO$O$OOoO$OO$O$$OO$",
"$$O$Oo$OoO$$%%%%%%%%%%********++++%%%%%%++++%%%%%%%%oO$$OOoO$$O$",
"$OO$Oo$OoO$O%%%%%%%%%%********++++%%%%%%++++%%%%%%%%oO$OoO$O$OO$",
"$OoOo$Oo$o$O%%%%%%%%%%%%++++%%%%%%%%%%%%%%%%%%%%%%%%$o$OoOoO$OoO",
"OoO$OO$O$OO$%%%%%%%%%%%%++++%%%%%%%%%%%%%%%%%%%%%%%%$OO$OoO$OoO$",
"Oo$$O$OO$$O$++%%%%++++++....----........++++++%%%%%%$$O$OoO$Oo$$",
"oOO$O$O$$OO$++%%%%++++++....----........++++++%%%%%%$OO$$OoOoOO$",
"O$O$O$OO$O$$%%%%++++......--&&..............++++%%%%$O$$OoOOO$O$",
"O$$OO$OoO$O$%%%%++++......--&&..............++++%%%%O$O$OOO$O$$O",
"o$OO$OoOO$O$%%%%++......XX&&  ..  ..  ..  ....++%%%%O$O$OoO$o$OO",
"o$O$$OO$O$OO%%%%++......XX&&  ..  ..  ..  ....++%%%%O$OOoO$$O$O$",
"O$OO$O$$O$$O%%%%......  XX@@&&  ..  ..  ..@@@@..%%%%O$$OO$O$O$OO",
"O$$O$OO$O$OO%%%%......  XX@@&&  ..  ..  ..@@@@..%%%%O$OOO$O$O$$O",
"oOoO$OO$OoOO%%%%....    XX&&##--        @@----..====OoOO$$OOoOoO",
"OO$OoOO$$O$O%%%%....    XX&&##--        @@----..====$O$OO$$OOO$O",
"$OO$OoO$O$$O%%%%..      XX&&  ##--      --&&  ..++++O$$OO$OO$OO$",
"$OO$O$OOoO$O%%%%..      XX&&  ##--      --&&  ..++++oO$OO$O$$OO$",
"$$O$Oo$OoO$$**%%..      XX&&    @@--  @@--    ..%%%%oO$$OOoO$$O$",
"$OOOOo$OoO$O**%%..      XX&&    @@--  @@--    ..%%%%oO$OoO$O$OO$",
"$Oo$o$Oo$o$O++%%..      XX##&&    ##&&XX--    ..%%**$o$OoOoO$Oo$",
"OoO$OO$O$OO$++%%..      XX##&&    ##&&XX--    ..%%**$OO$OoO$OoO$",
"Oo$$O$OO$$O$%%%%..      XX####&&    ##XX&&    ..%%**$$O$OoO$Oo$$",
"oOO$O$O$$OO$%%%%..      XX####&&    ##XX&&    ..%%**$OO$$OoOoOO$",
"O$O$O$OO$O$$%%%%..      XX##  ##&&    XX&&    ..%%++$O$$OoOOO$O$",
"O$$OO$OoO$O$%%%%..      XX##  ##&&    XX&&    ..%%++O$O$OOO$O$$O",
"o$OO$OoOO$O$%%%%..        XX    ##&&  XX&&    ++%%%%O$O$OoO$O$oO",
"O$O$$OO$O$OO%%%%..        XX    ##&&  XX&&    ++%%%%O$OOoO$$O$O$",
"O$OO$O$$O$$O%%%%..        XX##    @@&&XX&&    ++%%%%O$$OO$O$O$oo",
"O$$O$OO$O$OO%%%%..        XX##    @@&&XX&&    ++%%%%O$OOO$O$O$$O",
"oOoO$OO$OoOO%%++....        XXXX    @@XX&&    ..****OoOO$$OOoOoO",
"OO$OoOO$$O$O%%++....        XXXX    @@XX&&    ..****$O$OO$$OOO$O",
"$OO$OoO$O$$O%%%%++....        XXXX    XXXX  ..++****O$$OO$OO$OO$",
"$OO$OoOOoo$O%%%%++....        XXXX    XXXX  ..++****oo$OO$O$$OO$",
"Oo$$O$OO$$O$****++++......      XXXX  XX  ..++**++++$$O$OoO$Oo$$",
"oOO$O$O$$OO$****++++......      XXXX  XX  ..++**++++$OO$$OoOoOO$",
"O$O$O$OO$O$$%%%%%%%%%%++..................++%%%%%%%%$O$$OoOOO$O$",
"O$$OO$OoO$O$%%%%%%%%%%++..................++%%%%%%%%O$O$OOO$O$$O",
"o$OO$OoOO$O$++%%%%%%%%%%%%******++%%%%%%====++%%%%%%O$O$OoO$o$OO",
"O$O$$OO$O$OO++%%%%%%%%%%%%******++%%%%%%====++%%%%%%O$OOoO$$O$O$",
"O$OO$O$$O$$O%%%%%%%%%%********++++%%%%%%++++%%%%%%%%O$$OO$O$O$OO",
"o$$O$OO$O$OO%%%%%%%%%%********++++%%%%%%++++%%%%%%%%O$OOO$O$O$$O",
"oOoO$OO$OoOO$$OOoOoO$OO$OoOO$$OOoOoO$OO$OoOOoOoO$OO$OoOO$$OOoOoO",
"OO$OoOO$$O$OO$$OOO$OoOO$$O$OO$$OOO$OoOO$$O$OOO$OoOO$$O$OO$$OOO$O",
"$OO$OoO$O$$OO$OO$OO$OoO$O$$OO$OO$OO$OoO$O$$O$OO$OoO$O$$OO$OO$OO$",
"$OO$O$OOoO$OO$O$$OO$O$OOoO$OO$O$$OO$O$OOoO$O$OO$O$OOoO$OO$O$$OO$",
"$$O$Oo$OoO$$OOoO$$O$OoOOoO$$OOoO$$O$OoOOoO$$$$O$Oo$OoO$$OOoO$$O$",
"$OO$Oo$OoO$OoO$O$OO$OoO$oO$OoO$O$OO$OoO$oO$O$OO$Oo$OoO$OoO$O$OO$",
"$OoOo$Oo$o$OoOoO$OoOo$Oo$o$OoOoO$OoOo$Oo$o$O$OoOo$Oo$o$OoOoO$OoO",
"OoO$OO$O$OO$OoO$OoO$OO$O$OO$OoO$OoO$OO$O$OO$OoO$OO$O$OO$OoO$OoO$",
"Oo$$O$OO$$O$OoO$Oo$$O$OO$$O$OoO$Oo$$O$OO$$O$Oo$$O$OO$$O$OoO$Oo$$",
"oOO$O$O$$OO$$OoOoOO$O$O$$OO$$OoOoOO$O$O$$OO$oOO$O$O$$OO$$OoOoOO$",
"O$O$O$OO$O$$OoOOO$O$O$OO$O$$OoOOO$O$O$OO$O$$O$O$O$OO$O$$OoOOO$O$",
"O$$OO$OoO$O$OOO$O$$OO$OoO$O$OOO$O$$OO$OoO$O$O$$OO$OoO$O$OOO$O$$O"
};
