/* XPM */
static char *_f32bea8e56e47c7d2253733756605919VUowXy7p7vu3jFS[] = {
/* columns rows colors chars-per-pixel */
"64 64 12 1 ",
"  c black",
". c #4A4A39",
"X c #6A4129",
"o c #2F5753",
"O c #3B7D4F",
"+ c #7B735A",
"@ c #94734A",
"# c #A47B5A",
"$ c #63AB3F",
"% c #CDAC7B",
"& c #ACAC8B",
"* c #FFEEA4",
/* pixels */
"Oo$$O$OO$$O$OoO$Oo$$O$OO$$O$OoO$Oo$OO$OO$$O$Oo$$O$OO$$O$OoO$Oo$$",
"oOO$O$O$$OO$$OoOoOO$O$O$$OO$$OoOoOO$O$O$$OO$oOO$O$O$$OO$$OoOoOO$",
"O$O$O$OO$O$$OoOOO$O$O$OO$O$$OoOOO$O$O$OO$O$$O$O$O$OO$O$$OoOOO$O$",
"O$$OO$OoO$O$OOO$O$$OO$OoO$O$OOO$O$$OO$OoO$O$O$$OO$OoO$O$OOO$O$$O",
"o$OO$OoOO$O$OoO$o$OO$OoOO$O$OoO$o$OO$OoOO$O$o$OO$OoOO$O$OoO$o$OO",
"O$O$$OO$O$OOoO$$O$O$$OO$O$OOoO$$O$O$$OO$O$OOO$O$$OO$O$OOoO$$O$O$",
"O$OO$O$$O$$OO$O$O$OO$O$$O$$OO$O$O$OO$O$$O$$OO$OO$O$$O$$OO$O$O$OO",
"o$$O$OO$O$OOO$O$O$$O$OO$O$OOO$O$O$$O$OO$O$OOo$$O$OO$O$OOO$O$O$$O",
"oOoO$OO$OoOO$$OOoOoO$OO$OoOO$$OOoOoO$OO$OoOOoOoO$OO$OoOO$$OOoOoO",
"OO$OoOO$$O$OO$$OOO$OoOO$$O$OO$$OOO$OoOO$$O$OOO$OoOO$$O$OO$$OOO$O",
"$OO$OoO$O$$OO$OO$OO$OoO$O$$OO$OO$OO$OoO$O$$O$OO$OoO$O$$OO$OO$OO$",
"$OO$O$OOoO$OO$O$$OO$O$OOoO$OO$O$$OO$O$OOoO$O$OO$O$OOoO$OO$O$$OO$",
"$$O$Oo$OoO$$OOoO$$O$OoOOoO$$OOoO$$O$OoOOoO$$$$O$Oo$OoO$$OOoO$$O$",
"$OO$Oo$OoO$OoO$O$OO$OoO$oO$OoO$O$OO$OoO$oO$O$OO$Oo$OoO$OoO$O$OO$",
"$OoOo$Oo$o$OoOoO$OoOo$Oo$o$OoOoO$OoOo$Oo$o$O$OoOo$Oo$o$OoOoO$OoO",
"OoO$OO$O$OO$OoO$OoO$OO$O$OO$OoO$OoO$OO$O$OO$OoO$OO$O$OO$OoO$OoO$",
"Oo$$O$OO$$O$OoO$Oo++++++....****........++++++$$O$OO$$O$OoO$Oo$$",
"oOO$O$O$$OO$$OoOoO++++++....****........++++++O$O$O$$OO$$OoOoOO$",
"O$O$O$OO$O$$OoOO++++......**%%..............++++O$OO$O$$OoOOO$O$",
"O$$OO$OoO$O$OOO$++++......**%%..............++++O$OoO$O$OOO$O$$O",
"o$OO$OoOO$O$OoO$++......XX%%  ..  ..  ..  ....++$OoOO$O$OoO$o$OO",
"o$O$$OO$O$OOoO$$++......XX%%  ..  ..  ..  ....++$OO$O$OOoO$$O$O$",
"O$OO$O$$O$$OO$O$......  XX@@%%  ..  ..  ..@@@@..$O$$O$$OO$O$O$OO",
"O$$O$OO$O$OOO$O$......  XX@@%%  ..  ..  ..@@@@..$OO$O$OOO$O$O$$O",
"oOoO$OO$OoOO$$OO....    XX%%##**        @@****..$OO$OoOO$$OOoOoO",
"OO$OoOO$$O$OO$$O....    XX%%##**        @@****..oOO$$O$OO$$OOO$O",
"$OO$OoO$O$$OO$OO..      XX%%  ##**      **%%  ..OoO$O$$OO$OO$OO$",
"$OO$O$OOoO$OO$O$..      XX%%  ##**      **%%  ..O$OOoO$OO$O$$OO$",
"$$O$Oo$OoO$$OOoO..      XX%%    @@**  @@**    ..Oo$OoO$$OOoO$$O$",
"$OOOOo$OoO$OoO$O..      XX%%    @@**  @@**    ..Oo$OoO$OoO$O$OO$",
"$Oo$o$Oo$o$OoOoO..      XX##%%    ##%%XX**    ..o$Oo$o$OoOoO$Oo$",
"OoO$OO$O$OO$OoO$..      XX##%%    ##%%XX**    ..OO$O$OO$OoO$OoO$",
"Oo$$O$OO$$O$OoO$..      XX####%%    ##XX%%    ..O$OO$$O$OoO$Oo$$",
"oOO$O$O$$OO$$OoO..      XX####%%    ##XX%%    ..O$O$$OO$$OoOoOO$",
"O$O$O$OO$O$$OoOO..      XX##  ##%%    XX%%    ..O$OO$O$$OoOOO$O$",
"O$$OO$OoO$O$OOO$..      XX##  ##%%    XX%%    ..O$OoO$O$OOO$O$$O",
"o$OO$OoOO$O$OoO$..        XX    ##%%  XX%%    ++$OoOO$O$OoO$O$oO",
"O$O$$OO$O$OOoO$$..        XX    ##%%  XX%%    ++$OO$O$OOoO$$O$O$",
"O$OO$O$$O$$OO$O$..        XX##    @@%%XX%%    ++$O$$O$$OO$O$O$oo",
"O$$O$OO$O$OOO$O$..        XX##    @@%%XX%%    ++$OO$O$OOO$O$O$$O",
"oOoO$OO$OoOO$$OO....        XXXX    @@XX%%    ..$OO$OoOO$$OOoOoO",
"OO$OoOO$$O$OO$$O....        XXXX    @@XX%%    ..oOO$$O$OO$$OOO$O",
"$OO$OoO$O$$OO$OO++....        XXXX    XXXX  ..++OoO$O$$OO$OO$OO$",
"$OO$OoOOoo$OO$O$++....        XXXX    XXXX  ..++OoOOoo$OO$O$$OO$",
"Oo$$O$OO$$O$OoO$++++......      XXXX  XX  ..++&&O$OO$$O$OoO$Oo$$",
"oOO$O$O$$OO$$OoO++++......      XXXX  XX  ..++&&O$O$$OO$$OoOoOO$",
"O$O$O$OO$O$$OoOOO$O$O$++..................++O$O$O$OO$O$$OoOOO$O$",
"O$$OO$OoO$O$OOO$O$$OO$++..................++O$$OO$OoO$O$OOO$O$$O",
"o$OO$OoOO$O$OoO$o$OO$OoOO$O$OoO$o$OO$OoOO$O$o$OO$OoOO$O$OoO$o$OO",
"O$O$$OO$O$OOoO$$O$O$$OO$O$OOoO$$O$O$$OO$O$OOO$O$$OO$O$OOoO$$O$O$",
"O$OO$O$$O$$OO$O$O$OO$O$$O$$OO$O$O$OO$O$$O$$OO$OO$O$$O$$OO$O$O$OO",
"o$$O$OO$O$OOO$O$O$$O$OO$O$OOO$O$O$$O$OO$O$OOo$$O$OO$O$OOO$O$O$$O",
"oOoO$OO$OoOO$$OOoOoO$OO$OoOO$$OOoOoO$OO$OoOOoOoO$OO$OoOO$$OOoOoO",
"OO$OoOO$$O$OO$$OOO$OoOO$$O$OO$$OOO$OoOO$$O$OOO$OoOO$$O$OO$$OOO$O",
"$OO$OoO$O$$OO$OO$OO$OoO$O$$OO$OO$OO$OoO$O$$O$OO$OoO$O$$OO$OO$OO$",
"$OO$O$OOoO$OO$O$$OO$O$OOoO$OO$O$$OO$O$OOoO$O$OO$O$OOoO$OO$O$$OO$",
"$$O$Oo$OoO$$OOoO$$O$OoOOoO$$OOoO$$O$OoOOoO$$$$O$Oo$OoO$$OOoO$$O$",
"$OO$Oo$OoO$OoO$O$OO$OoO$oO$OoO$O$OO$OoO$oO$O$OO$Oo$OoO$OoO$O$OO$",
"$OoOo$Oo$o$OoOoO$OoOo$Oo$o$OoOoO$OoOo$Oo$o$O$OoOo$Oo$o$OoOoO$OoO",
"OoO$OO$O$OO$OoO$OoO$OO$O$OO$OoO$OoO$OO$O$OO$OoO$OO$O$OO$OoO$OoO$",
"Oo$$O$OO$$O$OoO$Oo$$O$OO$$O$OoO$Oo$$O$OO$$O$Oo$$O$OO$$O$OoO$Oo$$",
"oOO$O$O$$OO$$OoOoOO$O$O$$OO$$OoOoOO$O$O$$OO$oOO$O$O$$OO$$OoOoOO$",
"O$O$O$OO$O$$OoOOO$O$O$OO$O$$OoOOO$O$O$OO$O$$O$O$O$OO$O$$OoOOO$O$",
"O$$OO$OoO$O$OOO$O$$OO$OoO$O$OOO$O$$OO$OoO$O$O$$OO$OoO$O$OOO$O$$O"
};
