/* XPM */
static char *_2ddd97ab37242b3d5e1de0c2f0a29feGvl3HGhtv5iFYkLr[] = {
/* columns rows colors chars-per-pixel */
"64 64 3 1 ",
"  c #2F5753",
". c #3B7D4F",
"X c #63AB3F",
/* pixels */
". XX.X..XX.X. .X. XX.X..XX.X. .X. X..X..XX.X. XX.X..XX.X. .X. XX",
" ..X.X.XX..XX. . ..X.X.XX..XX. . ..X.X.XX..X ..X.X.XX..XX. . ..X",
".X.X.X..X.XX. ...X.X.X..X.XX. ...X.X.X..X.XX.X.X.X..X.XX. ...X.X",
".XX..X. .X.X...X.XX..X. .X.X...X.XX..X. .X.X.XX..X. .X.X...X.XX.",
" X..X. ..X.X. .X X..X. ..X.X. .X X..X. ..X.X X..X. ..X.X. .X X..",
".X.XX..X.X.. .XX.X.XX..X.X.. .XX.X.XX..X.X...X.XX..X.X.. .XX.X.X",
".X..X.XX.XX..X.X.X..X.XX.XX..X.X.X..X.XX.XX..X..X.XX.XX..X.X.X..",
" XX.X..X.X...X.X.XX.X..X.X...X.X.XX.X..X.X.. XX.X..X.X...X.X.XX.",
" . .X..X. ..XX.. . .X..X. ..XX.. . .X..X. .. . .X..X. ..XX.. . .",
"..X. ..XX.X..XX...X. ..XX.X..XX...X. ..XX.X...X. ..XX.X..XX...X.",
"X..X. .X.XX..X..X..X. .X.XX..X..X..X. .X.XX.X..X. .X.XX..X..X..X",
"X..X.X.. .X..X.XX..X.X.. .X..X.XX..X.X.. .X.X..X.X.. .X..X.XX..X",
"XX.X. X. .XX.. .XX.X. .. .XX.. .XX.X. .. .XXXX.X. X. .XX.. .XX.X",
"X..X. X. .X. .X.X..X. .X .X. .X.X..X. .X .X.X..X. X. .X. .X.X..X",
"X. . X. X X. . .X. . X. X X. . .X. . X. X X.X. . X. X X. . .X. .",
". .X..X.X..X. .X. .X..X.X..X. .X. .X..X.X..X. .X..X.X..X. .X. .X",
". XX.X..XX.X. .X. XX.X..XX.X. .X. XX.X..XX.X. XX.X..XX.X. .X. XX",
" ..X.X.XX..XX. . ..X.X.XX..XX. . ..X.X.XX..X ..X.X.XX..XX. . ..X",
".X.X.X..X.XX. ...X.X.X..X.XX. ...X.X.X..X.XX.X.X.X..X.XX. ...X.X",
".XX..X. .X.X...X.XX..X. .X.X...X.XX..X. .X.X.XX..X. .X.X...X.XX.",
" X..X. ..X.X. .X X..X. ..X.X. .X.X..X. ..X.X X..X. ..X.X. .X X..",
" X.XX..X.X.. .XX.X.XX..X.X.. .XX.X.XX..X.X.  X.XX..X.X.. .XX.X.X",
".X..X.XX.XX..X.X.X..X.XX.XX..X.X.X..X.XX.XX .X..X.XX.XX..X.X.X..",
".XX.X..X.X...X.X.XX.X..X.X...X.X.XX.X..X.X...XX.X..X.X...X.X.XX.",
" . .X..X. ..XX.. . .X..X. ..XX.. . .X..X. .. . .X..X. ..XX.. . .",
"..X. ..XX.X..XX...X. ..XX.X..XX...X. ..XX.X...X. ..XX.X..XX...X.",
"X..X. .X.XX..X..X..X. .X.XX..X..X..X. .X.XX.X..X. .X.XX..X..X..X",
"X..X.X.. .X..X.XX..X.X.. .X..X.XX..X.XX. .X.X..X.X.. .X..X.XX..X",
"XX.X. X. .XX.. .XX.X. X. .XX.. .XX.X. X. .XXXX.X. X. .XX.. .XX.X",
"X.... X. .X. .X.X..X. XX .X. .X.X.X.. X. .X.X.... X. .X. .X.X..X",
"X. X X. X X. . .X. X X. X X. . .X. X X. X X.X. X X. X X. . .X. X",
". .X..X.X..X. .X. .X..X.X..X. .X. .X..X.X..X. .X..X.X..X. .X. .X",
". XX.X..XX.X. .X. XX.X..XX.X. .X. XX.X..XX.X. XX.X..XX.X. .X. XX",
" ..X.X.XX..XX. . ..X.X.XX..XX. . ..X.X XX..X ..X.X.XX..XX. . ..X",
".X.X.X..X.XX. ...X.X.X..X.XX. ...X.X.X..X.XX.X.X.X..X.XX. ...X.X",
".XX..X. .X.X...X.XX..X. .X.X...X.XX..X. .X.X.XX..X. .X.X...X.XX.",
" X..X. ..X.X. .X.X .X. ..X.X. .X.X. X. ..X.X X..X. ..X.X. .X.X .",
".X.XX..X.X.. .XX.X.XX..X.X.. .XX.X.XX..X.X. .X.XX..X.X.. .XX.X.X",
".X..X.XX.XX..X.X.X  X.XX.XX..X.X.X .X.XX.XX .X..X.XX.XX..X.X.X  ",
".XX.X..X.X...X.X.XX.X..X.X...X.X.XX.X..X.X...XX.X..X.X...X.X.XX.",
" . .X..X. ..XX.. . .X..X. ..XX.. . .X..X. .. . .X..X. ..XX.. . .",
"..X. ..XX.X..XX...X. ..XX.X..XX...X. ..XX.X...X. ..XX.X..XX...X.",
"X..X. .X.XX..X..X..X. .X.XX..X..X..X. .X.XX.X..X. .X.XX..X..X..X",
"X..X. ..  X..X.XX..X.    .X..X.XX..X. .. .X.X..X. ..  X..X.XX..X",
". XX.X..XX.X. .X. XX.X..XX.X. .X. X..X..XX.X. XX.X..XX.X. .X. XX",
" ..X.X.XX..XX. . ..X.X.XX..XX. . ..X.X.XX..X ..X.X.XX..XX. . ..X",
".X.X.X..X.XX. ...X.X.X..X.XX. ...X.X.X..X.XX.X.X.X..X.XX. ...X.X",
".XX..X. .X.X...X.XX..X. .X.X...X.XX..X. .X.X.XX..X. .X.X...X.XX.",
" X..X. ..X.X. .X X..X. ..X.X. .X X..X. ..X.X X..X. ..X.X. .X X..",
".X.XX..X.X.. .XX.X.XX..X.X.. .XX.X.XX..X.X...X.XX..X.X.. .XX.X.X",
".X..X.XX.XX..X.X.X..X.XX.XX..X.X.X..X.XX.XX..X..X.XX.XX..X.X.X..",
" XX.X..X.X...X.X.XX.X..X.X...X.X.XX.X..X.X.. XX.X..X.X...X.X.XX.",
" . .X..X. ..XX.. . .X..X. ..XX.. . .X..X. .. . .X..X. ..XX.. . .",
"..X. ..XX.X..XX...X. ..XX.X..XX...X. ..XX.X...X. ..XX.X..XX...X.",
"X..X. .X.XX..X..X..X. .X.XX..X..X..X. .X.XX.X..X. .X.XX..X..X..X",
"X..X.X.. .X..X.XX..X.X.. .X..X.XX..X.X.. .X.X..X.X.. .X..X.XX..X",
"XX.X. X. .XX.. .XX.X. .. .XX.. .XX.X. .. .XXXX.X. X. .XX.. .XX.X",
"X..X. X. .X. .X.X..X. .X .X. .X.X..X. .X .X.X..X. X. .X. .X.X..X",
"X. . X. X X. . .X. . X. X X. . .X. . X. X X.X. . X. X X. . .X. .",
". .X..X.X..X. .X. .X..X.X..X. .X. .X..X.X..X. .X..X.X..X. .X. .X",
". XX.X..XX.X. .X. XX.X..XX.X. .X. XX.X..XX.X. XX.X..XX.X. .X. XX",
" ..X.X.XX..XX. . ..X.X.XX..XX. . ..X.X.XX..X ..X.X.XX..XX. . ..X",
".X.X.X..X.XX. ...X.X.X..X.XX. ...X.X.X..X.XX.X.X.X..X.XX. ...X.X",
".XX..X. .X.X...X.XX..X. .X.X...X.XX..X. .X.X.XX..X. .X.X...X.XX."
};
