/* XPM */
static char *ef9e7697723a4617fef11fc0de0c1e8361BaPY6BgHskxsKj[] = {
/* columns rows colors chars-per-pixel */
"64 64 7 1 ",
"  c #181818",
". c #2F5753",
"X c #3B7D4F",
"o c #F80000",
"O c #63AB3F",
"+ c #F88800",
"@ c #F8F8F8",
/* pixels */
".OOXOXXOOXOX.XOX.OOXOXXOOXOX.XOX.OXXOXXOOXO.OOXOXXOOXOX.XOX.OOXO",
"XXOXOXOOXXOOX.X.XXOXOXOOXXOOX.X.XXOXOXOOXXOXXOXOXOOXXOOX.X.XXOXO",
"OXOXOXXOXOOX.XXXOXOXOXXOXOOX.XXXOXOXOXXOXOOOXOXOXXOXOOX.XXXOXOXO",
"OOXXOX.XOXOXXXOXOOXXOX.XOXOXXXOXOOXXOX.XOXOOOXXOX.XOXOXXXOXOOXXO",
"OXXOX.XXOXOX.XO.OXXOX.o    o.XO.OXXOX.XXOXOOXXOX.XXOXOX.XO.OXXOX",
"OXOOXXOXOXX.XOo oXOOXo@@++++ oOXOXOOXXOXo oOXOOXXOXOXX.XOOXOXOOX",
"OXXOXOOXOOXXO @@@o  o@+@@o o++  oXXOXOOX ++ XXOXOOXOOXXOXOXOXXOX",
"OOXOXXOXOXXX @+o++++++oo ++ +++++ oOXXOXo++ oXOXXOXOXXXOXOXOOXOX",
"X.XOXXOX.XX @+ ++++++oo  o@ +++o++@o oOX. +@ XOXXOX.XXOOXX.X.XOX",
"XOX.XXOOXOXo@++++++++++o   o++++ooo++@ OXo++@o XXOOXOXXOOXXXOX.X",
"XXOX.XOXOOXX   o++++++++++++++++  ooo++oOO ++@@ oOXOOXXOXXOXXOX.",
"XXOXOXX.XOXXo o   o+++++++++++++ XOo  o.XOXo++@@  .XOXXOXOOXXOXO",
"OXOX.OX.XOOXX + @ oo o++++++++++ XOX.XX.XOO ++oo++ XOOXX.XOOXOX.",
"XXOX.OX.XOX.Xooo o+++o o++o++++o XOX.XO.XOX ++  +++ OX.XOXOXXOX.",
"X.X.OX.O.OX.X.o   oo++++ o+++++oo.X.OX.O.OX ++  o+++oX.X.XOX.X.O",
".XOXXOXOXXOX. ++ XO oo+++++++ooo.XOXXOXOXXOo+o   +++ OX.XOX.XOXX",
".OOXOXXOOXOX o++ooOX ooo+++oooo .OOXOXXOOXo++    o+++oX.XOX.OOXO",
"XXOXOXOOXXO oo ++ OXOX oooooooooXXOXOXOOXX +oo    o++ OX.X.XXOXO",
"OXOXOXXOXO oo  o+ OXOX   ooooo XOXOXOXXOXOo+ oo o  +++o.XXXOXOXO",
"OOXXOX.XOX o   o+oXXOX  oooooooXOOXXOX.XOo++  o o  +++ XXOXOOXXO",
"OXXOX.XXO o    o XXOXoooo ooooOXOXXOX.XXO +oo oooo o+++oXO.OXXOX",
"OXOOXXOX oo    o XOOX oo+++oo OXOXOOXXOX ++ o o+oo  +++ OOXOXOOX",
"OXXOXOOX o   o o XXO o+++++oo OXO oOXOO ++ooo o+oooo++++oOXOXXOX",
"OOXOXXOX o   o oo X +++++++oooOXoo+oXX +++ oooo+oooo+++@ OXOOXOX",
"X.XOXXO o    o oo  +++++++oooXX oo++ o+++ oo+o++oooo ++@oX.X.XOX",
"XOX.XXO o   ooo o ++++++++oo O oo o+++++ oo++o+@oooo ++@+oXXOX.X",
"XXOX.XO o   oooo +++++++++oo  oo    o++ ooo+++@@ooooo++@@ OXXOX.",
"XXOXOX o    ooo +++++++++++o oo     o  ooo++++@@+oooo +@@ OXXOXO",
"OXOX.O o    oo ++++++++++++ooo     ooooooo+++++@@oooo ++@ OOXOX.",
"XXXX.O   +++  o+++++++++++++o      ooooooo++@++@@+ooo ++@oOXXOX.",
"X.O.OXo++++++ +++o  o++++++++o    ooooooo+++@@@@@@+oo ++++oX.O.O",
".XOXXOo+o o+o @@o++++ ++++++++o   ooooooo+++@@@@@@+oooo+++ .XOXX",
".OOXO +++++o+ @@  ++++o++++++++oo oooooo++++@@@@@@@ooo +++ .OOXO",
"XXOXO +o+++   @o+  o++ +++ o++++o oooooo+++@@@@@@@@ooo +++ XXOXO",
"OXOXO ++ + @ o@  o++++o  o+++++++o ooooo+++@@@@@@@@ooo +++ OXOXO",
"OOXXOo++o  + +o@+ ++++++o o++++++o ooooo+++@@@+@@@@ooo +++ OOXXO",
"OXXOX.o +@  o@ @  o o+++++ ++++++o ooooooo++@@++@@oooo +++ O.XOX",
"OXOOXo    o++@o o  ++ooo +++++++oo  oooooo+++@ ++ ooooo+++ OXOOX",
"OXXOX    ++@@@@@ @o oo    o+++ooo     oooooo+++o++ oo ++++ O..OX",
"OOXOXo   @@@@@@@ @+o   oooo oooo  XOo  ooo OOXO ++ooo ++++oOOXOX",
"X.XOXX   @@@@@@@o o@@ o+++ooo   oo OXo ooooX.XOo+++ o +++o.X.XOX",
"XOX.Xoo  @@@@@@@@@@@ o+++++++oooooo XX  o XXOX ++++   +++ XXOX.X",
"XXOX. ooo+@@@@@@@@@@ ++++++++++++ooo XOo oXXXOo++++   +++ OXXOX.",
"XXOXoooooo@@@@@@@@@+o+++++++++++++oooXX.oOXXX +++++  o++ooOXXOX.",
".OOX +oooo+@@@@@@@@o++++++++++++++ooo XOOXO.o++++++  +++ OX.OOXO",
"XXOX ++oooo@@@@@@@+ ++++++++++++++ooo oOXo o++o++++  ++ooX.XXOXO",
"OXOX +++oo @@@+++++ ++++++++++++++oooo  o++++++o+++  oo XXXOXOXO",
"OOXXo++++ooo@++++++ ++++++oo++++++oooo o+ +++oo+++o ooooXOXOOXXO",
"OXXOX ++++o @++++++o++++oo+++++++ooooo oo+o+++++++o oo .XO.OXXOX",
"OXOOXo++++oo +++++++o++o+++++++ooooooo oo++o+++++o    oXOOXOXOOX",
"OXXOXO +++ooo ++++++ ++++o     oooooo ooo++ +++++o   oXOXOXOXXOX",
"OOXOXXo++ooooo  +++ooo o @++++o   ooo oooo++o+++o   oXXOXOXOOXOX",
"X.XOXXOo  ooooo  oooo  +@+++oooooo o oooooo++++oo  oXXOOXX.X.XOX",
"XOX.XX o+++oo         o++++oooooooo oooooooooooo ooXOXXOOXXXOX.X",
"XXOX.o o  ooooo   o  o    o  oooo  o oooooooooo XoXOOXXOXXOXXOX.",
"XXOXo@+  +@ o    XO+o  @@+ @@+o @@+o  oooooo oXOXX.XOXXOXOOXXOXO",
"OXOX @+ o@@+ @+ OXOX. @@+o @@++ @@@+ Xo    oXOX.OX.XOOXX.XOOXOX.",
"XXOXo   +@+ o@@oXXOX.o@++  @++oo @@+oXO.XOXXXOX.OX.XOX.XOXOXXOX.",
"X.X.OX.Oo o.X oOX.X.OXo oOo  oXOXo oOX.O.OXX.X.OX.O.OX.X.XOX.X.O",
".XOXXOXOXXOX.XOX.XOXXOXOXXOX.XOX.XOXXOXOXXO.XOXXOXOXXOX.XOX.XOXX",
".OOXOXXOOXOX.XOX.OOXOXXOOXOX.XOX.OOXOXXOOXO.OOXOXXOOXOX.XOX.OOXO",
"XXOXOXOOXXOOX.X.XXOXOXOOXXOOX.X.XXOXOXOOXXOXXOXOXOOXXOOX.X.XXOXO",
"OXOXOXXOXOOX.XXXOXOXOXXOXOOX.XXXOXOXOXXOXOOOXOXOXXOXOOX.XXXOXOXO",
"OOXXOX.XOXOXXXOXOOXXOX.XOXOXXXOXOOXXOX.XOXOOOXXOX.XOXOXXXOXOOXXO"
};
