/* XPM */
static char *_d0c7742b72e4c2f8a5db47be0077e9fAYGzNGLVIK9tf0ee[] = {
/* columns rows colors chars-per-pixel */
"64 64 11 1 ",
"  c #413931",
". c #395A10",
"X c #2F5753",
"o c #3B7D4F",
"O c #736262",
"+ c #399431",
"@ c #63AB3F",
"# c #18A46A",
"$ c #83D562",
"% c #41B48B",
"& c #BDFF8B",
/* pixels */
"oX@@o@oo@@o@oXo@oX@@o@oo@@o@oXo@oX@oo@oo@@o@oX@@o@oo@@o@oXo@oX@@",
"Xoo@o@o@@oo@@oXoXoo@o@o@@oo@@oXoXoo@o@o@@oo@Xoo@o@o@@oo@@oXoXoo@",
"o@o@o@oo@o@@oXooo@o@o@oo@o@@oXooo@o@o@oo@o@@o@o@o@oo@o@@oXooo@o@",
"o@@oo@oXo@o@ooo@o@@oo@oXo@o@ooo@o@@oo@oXo@o@o@@oo@oXo@o@ooo@o@@o",
"X@oo@oXoo@o@oXo@X@oo@oXoo@o@oXo@X@oo@oXoo@o@X@oo@oXoo@o@oXo@X@oo",
"o@o@@oo@o@ooXo@@o@o@@oo@o@ooXo@@o@o@@oo@o@ooo@o@@oo@o@ooXo@@o@o@",
"o@oo@o@@o@@oo@o@o@oo@o@@o@@oo@o@o@oo@o@@o@@oo@oo@o@@o@@oo@o@o@oo",
"X@@o@oo@o@ooo@o@o@@o@oo@o@ooo@o@o@@o@oo@o@ooX@@o@oo@o@ooo@o@o@@o",
"XoXo@oo@oXoo@@ooXoXo@oo@oXoo@@ooXoXo@oo@oXooXoXo@oo@oXoo@@ooXoXo",
"oo@oXoo@@o@oo@@ooo@oXoo@@o@oo@@..o@oXoo@@o@ooo@oXoo@@o@oo@@ooo@o",
"@oo@oXo@o@@oo@oo@oo@oXo@o@@oo@.&&.o@oXo@o@@o@oo@oXo@o@@oo@oo@oo@",
"@oo@o@ooXo@oo@o@@oo@o@ooXo@oo@+&&+o@o@ooXo@o@oo@o@ooXo@oo@o@@oo@",
"@@o@oX@oXo@@ooXo@@o@oXooXo@@o.$&&$.@oXooXo@@@@o@oX@oXo@@ooXo@@o@",
"@oo@oX@oXo@oXo@o@oo@oXo@Xo@+++&&&$+++Xo@Xo@o@oo@oX@oXo@oXo@o@oo@",
"@oXoX@oX@X@oXoXo@oXoX@oX@++&&$&&&$$&&++X@X@o@oXoX@oX@X@oXoXo@oXo",
"oXo@oo@o@oo@oXo@oXo@oo@o@+$$&$&&&$$$$$+o@oo@oXo@oo@o@oo@oXo@oXo@",
"oX@@o@oo@@o@oXo@oX@@o@oo@+&&$&&&&$&$$&+o@@o@oX@@o@oo@@o@oXo@oX@@",
"Xoo@o@o@@oo@@oXoXoo@o@++$&$$&&&&&&&&&$&$++o@Xoo@o@o@@oo@@oXoXoo@",
"o@o@o@oo@o@@oXooo@o@o@+$++$&&&&&&&&&$&++$+@@o@o@o@oo@o@@oXooo@o@",
"o@@oo@oXo@o@ooo@o@@oo.&&+$&&&&&&&&&$&$$+&&.@o@@oo@oXo@o@ooo@o@@o",
"X@oo@oXoo@o@oXo@X@oo@o++$&&$&&&&&&&&$&&$++o@X@oo@oXoo@o@oXo@X@oo",
"X@o@@oo@o@ooXo@@o@o@.$&&+&+&&&&&&&&$&+&+&&$.X@o@@oo@o@ooXo@@o@o@",
"o@oo@o@@o@@oo@o@o@oo.&&+$+&&&&+&&+&$&&+$+&&.o@oo@o@@o@@oo@o@o@oo",
"o@@o@oo@o@ooo@o@o@@o@+$&&+&$$&$&&$&&$+$$&$+oo@@o@oo@o@ooo@o@o@@o",
"XoXo@oo@oXoo@@ooXoXo.&&&$$+++$&&&&&$++$$&&&.XoXo@oo@oXoo@@ooXoXo",
"oo@oXoo@@o@oo@@ooo...&&$+$&&$+&$$&++$$$+$&&...@oXoo@@o@oo@@ooo@o",
"@oo@oXo@o@@oo@oo@o.$$.$.&&&&$$++++$$$&$&.$.$$.o@oXo@o@@oo@oo@oo@",
"@oo@o@ooXo@oo@o@@oo+$.+&&&&&$&+$$+$$&$&$&+.$+oo@o@ooXo@oo@o@@oo@",
"@@o@oX@oXo@@ooXo@@.$++.&+&&$&&&&&&$&$&$&&.++$.o@oX@oXo@@ooXo@@o@",
"@ooooX@oXo@oXo@o@o+++$++&&+&&&$&&$&$&+&&++$+++oooX@oXo@oXo@o@oo@",
"@oX@X@oX@X@oXoXo@o.+$$$++++&&&&&&&&&&++++$$$+.X@X@oX@X@oXoXo@oX@",
"oXo@oo@o@oo@oXo@o..$$$+$$$++&+&&&&+&++$$$+$$$..@oo@o@oo@oXo@oXo@",
"oX@@o@oo@@o@oXo@o+$+$+$$$$++.$&$$&$.++$$$$+$+$+@o@oo@@o@oXo@oX@@",
"Xoo@o@o@@oo@@oXoX.+.++$$+$$+++$$$$+++$$+$$++.+.@o@o@@oo@@oXoXoo@",
"o@o@o@oo@o@@oXooo.+..+$+$$$$+$++++$+$$$$+$+..+.@o@oo@o@@oXooo@o@",
"o@@oo@oXo@o@ooo@o@.$+.+$$$$+$$+$$+$$+$$$$+.+$.@oo@oXo@o@ooo@o@@o",
"X@oo@oXoo@o@oXo@o.$++....$++$$+$$+$$++$....++$.o@oXoo@o@oXo@o@Xo",
"o@o@@oo@o@ooXo@@o.++++++..+$$+$++$+$$+..++++++.@@oo@o@ooXo@@o@o@",
"o@oo@o@@o@@oo@o@o.++.+++...$$+$$$$+$$...+++.++.o@o@@o@@oo@o@o@XX",
"o@@o@oo@o@ooo@o@o@..++.+++.....$$.....+++.++..@o@oo@o@ooo@o@o@@o",
"XoXo@oo@oXoo@@ooXoX.+.+++++++......+++++++.+.oXo@oo@oXoo@@ooXoXo",
"oo@oXoo@@o@oo@@ooo@...++++.++++++++++.++++...o@oXoo@@o@oo@@ooo@o",
"@oo@oXo@o@@oo@oo@oo#+.+++.+++.++++.+++.+++.+#oo@oXo@o@@oo@oo@oo@",
"@oo@oXooXX@oo@o@@o#+++..+.++..++++..++.+..+++#o@oXooXX@oo@o@@oo@",
"oX@@o@oo@@o@oXo@o#++++.....+...++...+.....++++#@o@oo@@o@oXo@oX@@",
"Xoo@o@o@@oo@@oXoX#+++....... ..++.. .......+++#@o@o@@oo@@oXoXoo@",
"o@o@o@oo@o@@oXooo#+++....... OO..OO .......+++#@o@oo@o@@oXooo@o@",
"o@@oo@oXo@o@ooo@o#+++....... OOOOOO .......+++#oo@oXo@o@ooo@o@@o",
"X@oo@oXoo@o@oXo@X#++++....... OOOO .......++++#o@oXoo@o@oXo@X@oo",
"o@o@@oo@o@ooXo@@o%#++++.......    .......++++#%@@oo@o@ooXo@@o@o@",
"o@oo@o@@o@@oo@o@o@%#+++++..............+++++#%oo@o@@o@@oo@o@o@oo",
"X@@o@oo@o@ooo@o@o@@%##+++++..........+++++##%@@o@oo@o@ooo@o@o@@o",
"XoXo@oo@oXoo@@ooXoXo@%###++++++++++++++###%oXoXo@oo@oXoo@@ooXoXo",
"oo@oXoo@@o@oo@@ooo@oXoo%%###++++++++###%%o@ooo@oXoo@@o@oo@@ooo@o",
"@oo@oXo@o@@oo@oo@oo@oXo@o@@oo@oo@oo@oXo@o@@o@oo@oXo@o@@oo@oo@oo@",
"@oo@o@ooXo@oo@o@@oo@o@ooXo@oo@o@@oo@o@ooXo@o@oo@o@ooXo@oo@o@@oo@",
"@@o@oX@oXo@@ooXo@@o@oXooXo@@ooXo@@o@oXooXo@@@@o@oX@oXo@@ooXo@@o@",
"@oo@oX@oXo@oXo@o@oo@oXo@Xo@oXo@o@oo@oXo@Xo@o@oo@oX@oXo@oXo@o@oo@",
"@oXoX@oX@X@oXoXo@oXoX@oX@X@oXoXo@oXoX@oX@X@o@oXoX@oX@X@oXoXo@oXo",
"oXo@oo@o@oo@oXo@oXo@oo@o@oo@oXo@oXo@oo@o@oo@oXo@oo@o@oo@oXo@oXo@",
"oX@@o@oo@@o@oXo@oX@@o@oo@@o@oXo@oX@@o@oo@@o@oX@@o@oo@@o@oXo@oX@@",
"Xoo@o@o@@oo@@oXoXoo@o@o@@oo@@oXoXoo@o@o@@oo@Xoo@o@o@@oo@@oXoXoo@",
"o@o@o@oo@o@@oXooo@o@o@oo@o@@oXooo@o@o@oo@o@@o@o@o@oo@o@@oXooo@o@",
"o@@oo@oXo@o@ooo@o@@oo@oXo@o@ooo@o@@oo@oXo@o@o@@oo@oXo@o@ooo@o@@o"
};
