/* XPM */
static char *_7869a6dedc14b2fdd065745a9a094fbQe28sKcQqCVtsar2[] = {
/* columns rows colors chars-per-pixel */
"44 44 3 1 ",
"  c #2F5753",
". c #3B7D4F",
"X c #63AB3F",
/* pixels */
". XX.X..XX.X. .X. XX.X..XX.X. .X. X..X..XX.X",
" ..X.X.XX..XX. . ..X.X.XX..XX. . ..X.X.XX..X",
".X.X.X..X.XX. ...X.X.X..X.XX. ...X.X.X..X.XX",
".XX..X. .X.X...X.XX..X. .X.X...X.XX..X. .X.X",
" X..X. ..X.X. .X X..X. ..X.X. .X X..X. ..X.X",
".X.XX..X.X.. .XX.X.XX..X.X.. .XX.X.XX..X.X..",
".X..X.XX.XX..X.X.X..X.XX.XX..X.X.X..X.XX.XX.",
" XX.X..X.X...X.X.XX.X..X.X...X.X.XX.X..X.X..",
" . .X..X. ..XX.. . .X..X. ..XX.. . .X..X. ..",
"..X. ..XX.X..XX...X. ..XX.X..XX...X. ..XX.X.",
"X..X. .X.XX..X..X..X. .X.XX..X..X..X. .X.XX.",
"X..X.X.. .X..X.XX..X.X.. .X..X.XX..X.X.. .X.",
"XX.X. X. .XX.. .XX.X. .. .XX.. .XX.X. .. .XX",
"X..X. X. .X. .X.X..X. .X .X. .X.X..X. .X .X.",
"X. . X. X X. . .X. . X. X X. . .X. . X. X X.",
". .X..X.X..X. .X. .X..X.X..X. .X. .X..X.X..X",
". XX.X..XX.X. .X. XX.X..XX.X. .X. XX.X..XX.X",
" ..X.X.XX..XX. . ..X.X.XX..XX. . ..X.X.XX..X",
".X.X.X..X.XX. ...X.X.X..X.XX. ...X.X.X..X.XX",
".XX..X. .X.X...X.XX..X. .X.X...X.XX..X. .X.X",
" X..X. ..X.X. .X X..X. ..X.X. .X.X..X. ..X.X",
" X.XX..X.X.. .XX.X.XX..X.X.. .XX.X.XX..X.X. ",
".X..X.XX.XX..X.X.X..X.XX.XX..X.X.X..X.XX.XX ",
".XX.X..X.X...X.X.XX.X..X.X...X.X.XX.X..X.X..",
" . .X..X. ..XX.. . .X..X. ..XX.. . .X..X. ..",
"..X. ..XX.X..XX...X. ..XX.X..XX...X. ..XX.X.",
"X..X. .X.XX..X..X..X. .X.XX..X..X..X. .X.XX.",
"X..X.X.. .X..X.XX..X.X.. .X..X.XX..X.XX. .X.",
"XX.X. X. .XX.. .XX.X. X. .XX.. .XX.X. X. .XX",
"X.... X. .X. .X.X..X. XX .X. .X.X.X.. X. .X.",
"X. X X. X X. . .X. X X. X X. . .X. X X. X X.",
". .X..X.X..X. .X. .X..X.X..X. .X. .X..X.X..X",
". XX.X..XX.X. .X. XX.X..XX.X. .X. XX.X..XX.X",
" ..X.X.XX..XX. . ..X.X.XX..XX. . ..X.X XX..X",
".X.X.X..X.XX. ...X.X.X..X.XX. ...X.X.X..X.XX",
".XX..X. .X.X...X.XX..X. .X.X...X.XX..X. .X.X",
" X..X. ..X.X. .X.X .X. ..X.X. .X.X. X. ..X.X",
".X.XX..X.X.. .XX.X.XX..X.X.. .XX.X.XX..X.X. ",
".X..X.XX.XX..X.X.X  X.XX.XX..X.X.X .X.XX.XX ",
".XX.X..X.X...X.X.XX.X..X.X...X.X.XX.X..X.X..",
" . .X..X. ..XX.. . .X..X. ..XX.. . .X..X. ..",
"..X. ..XX.X..XX...X. ..XX.X..XX...X. ..XX.X.",
"X..X. .X.XX..X..X..X. .X.XX..X..X..X. .X.XX.",
"X..X. ..  X..X.XX..X.    .X..X.XX..X. .. .X."
};
