/* XPM */
static char *_81f8f3ac3c54c38d1a6f586625680c1QjiD3Ty9kHeE203x[] = {
/* columns rows colors chars-per-pixel */
"41 42 4 1 ",
"  c #283540",
". c #3B7D4F",
"X c #63AB3F",
"o c #C8D45D",
/* pixels */
"...   ooo XXXooo...   ooo XXXooo...   ooo",
"   XXX   o.. oo    XXX   o.. oo    XXX   ",
"..  .XX .oo  o ...  .XX .oo  o ...  .XX .",
".ooo..X..oooXX...ooo..X..oooXX...ooo..X..",
"ooo ...   ooX...ooo ...   ooX...ooo ...  ",
"oo   .. ...o XXXoo   .. ...o XXXoo   .. .",
"X ... .oo...  XXX ... .oo...  XXX ... .oo",
"X..o  ooo ...  XX..o  ooo ...  XX..o  ooo",
"...ooXXX  .oo.  ...ooXXX  .oo.  ...ooXXX ",
" oooooXXX ..o..  oooooXXX ..o..  oooooXXX",
"XX...o XX.XXX...XX...o XX.XXX...XX...o XX",
"XXX...  .XXX. ..XXX...  .XXX. ..XXX...  .",
" XXX... XXX .  . XXX... XXX .  . XXX... X",
" .  ...   .. XXX .  ...   .. XXX .  ...  ",
"X .XX...XXX.. XoX .XX...XXX.. XoX .XX...X",
"X.XXX ...XXX..ooX.XXX ...XXX..ooX.XXX ...",
"...   ooo XXXooo...   ooo XXXooo...   ooo",
"   XXX   o.. oo    XXX   o.. oo    XXX   ",
"..  .XX .oo  o ...  .XX .oo  o ...  .XX .",
".ooo..X..oooXX...ooo..X..oooXX...ooo..X..",
"ooo ...   ooX...ooo ...   ooX...ooo ...  ",
"oo   .. ...o XXXoo   .. ...o XXXoo   .. .",
"X ... .oo...  XXX ... .oo...  XXX ... .oo",
"X..o  ooo ...  XX..o  ooo ...  XX..o  ooo",
"...ooXXX  .oo.  ...ooXXX  .oo.  ...ooXXX ",
" oooooXXX ..o..  oooooXXX ..o..  oooooXXX",
"XX...o XX.XXX...XX...o XX.XXX...XX...o XX",
"XXX...  .XXX. ..XXX...  .XXX. ..XXX...  .",
" XXX... XXX .  . XXX... XXX .  . XXX... X",
" .  ...   .. XXX .  ...   .. XXX .  ...  ",
"X .XX...XXX.. XoX .XX...XXX.. XoX .XX...X",
"X.XXX ...XXX..ooX.XXX ...XXX..ooX.XXX ...",
"...   ooo XXXooo...   ooo XXXooo...   ooo",
"   XXX   o.. oo    XXX   o.. oo    XXX   ",
"..  .XX .oo  o ...  .XX .oo  o ...  .XX .",
".ooo..X..oooXX...ooo..X..oooXX...ooo..X..",
"ooo ...   ooX...ooo ...   ooX...ooo ...  ",
"oo   .. ...o XXXoo   .. ...o XXXoo   .. .",
"X ... .oo...  XXX ... .oo...  XXX ... .oo",
"X..o  ooo ...  XX..o  ooo ...  XX..o  ooo",
"...ooXXX  .oo.  ...ooXXX  .oo.  ...ooXXX ",
" oooooXXX ..o..  oooooXXX ..o..  oooooXXX"
};
